X:1
M:3/4
K:E
|:d/2c/2|dc/2c/2 B/2G/2A/2G/2|BA FG/2G/2|BA A3/2G/2|\
FF GD:|
K:C
DF GA|FA E2|FG FG|EA E3/2G/2|FA Bc|B4||